X:1
T: Belheview House
C:William Marshall
R:Strathspey
Q:128
K:Cm
M:4/4
L:1/16
|:C2|C3c c2G2 ((3c2c2c2) e4|d3c B2d2 fedc B2d2|C3c c2G2 ccc2 e4|d3c B2d2 c4 c2C2|
C3c c2G2 ((3c2c2c2) e4|d3c B2d2 fedc B2d2|C3c c2G2 ccc2 e4|d3c B2d2 c4 c2d2|
e6g2 eee2 e4|d3c B2d2 fedc B2d2|e6g2 eee2 g2e2|d2B2 f2d2 c4C4|
e6g2 eee2 e4|d3c B2d2 fedc B2d2|e6g2 d2B2 f2d2|e2c2 d2=B2 c4C2:|
